svg/us-highway_1.svg

<svg xmlns="http://www.w3.org/2000/svg" width="17" height="17">
    <path style="marker:none" d="M3.5 1l-3 2.5C1 4 2.5 5 1.5 7S0 12 2 14c2.5 2.5 5.5.5 6.5 2.5 1-2 4 0 6.5-2.5 2-2 1.5-5 .5-7s.5-3 1-3.5l-3-2.5c-2 1-2.5 2-5 0-2.5 2-3 1-5 0z" color="#000" fill="#fff" fill-rule="evenodd" stroke="#4d4d4d" stroke-linecap="round" stroke-linejoin="round" overflow="visible"/>
</svg>

<?xml version="1.0" encoding="UTF-8" standalone="no"?>
<!-- Created with Inkscape (http://www.inkscape.org/) -->

<svg
   xmlns:dc="http://purl.org/dc/elements/1.1/"
   xmlns:cc="http://creativecommons.org/ns#"
   xmlns:rdf="http://www.w3.org/1999/02/22-rdf-syntax-ns#"
   xmlns:svg="http://www.w3.org/2000/svg"
   xmlns="http://www.w3.org/2000/svg"
   xmlns:sodipodi="http://sodipodi.sourceforge.net/DTD/sodipodi-0.dtd"
   xmlns:inkscape="http://www.inkscape.org/namespaces/inkscape"
   width="17"
   height="17"
   id="svg3844"
   version="1.1"
   inkscape:version="0.48.4 r9939"
   sodipodi:docname="us-highway-2.svg">
  <defs
     id="defs3846" />
  <sodipodi:namedview
     id="base"
     pagecolor="#ffffff"
     bordercolor="#666666"
     borderopacity="1.0"
     inkscape:pageopacity="0.0"
     inkscape:pageshadow="2"
     inkscape:zoom="8"
     inkscape:cx="14.955385"
     inkscape:cy="13.567652"
     inkscape:document-units="px"
     inkscape:current-layer="layer1"
     showgrid="true"
     inkscape:snap-bbox="false"
     fit-margin-top="0"
     fit-margin-left="0"
     fit-margin-right="0"
     fit-margin-bottom="0"
     inkscape:window-width="1855"
     inkscape:window-height="1056"
     inkscape:window-x="65"
     inkscape:window-y="24"
     inkscape:window-maximized="1"
     inkscape:object-nodes="true">
    <inkscape:grid
       type="xygrid"
       id="grid3875"
       empspacing="2"
       visible="true"
       enabled="true"
       snapvisiblegridlinesonly="true"
       originx="-301px"
       originy="-134px"
       spacingy="0.5px"
       spacingx="0.5px" />
  </sodipodi:namedview>
  <metadata
     id="metadata3849">
    <rdf:RDF>
      <cc:Work
         rdf:about="">
        <dc:format>image/svg+xml</dc:format>
        <dc:type
           rdf:resource="http://purl.org/dc/dcmitype/StillImage" />
        <dc:title />
      </cc:Work>
    </rdf:RDF>
  </metadata>
  <g
     inkscape:label="Layer 1"
     inkscape:groupmode="layer"
     id="layer1"
     transform="translate(-301,-901.36218)">
    <path
       style="color:#000000;fill:#ffffff;fill-opacity:1;fill-rule:evenodd;stroke:#4d4d4d;stroke-width:1;stroke-linecap:round;stroke-linejoin:round;marker:none;visibility:visible;display:inline;overflow:visible;enable-background:accumulate;opacity:1"
       clip-path="none"
       d="M 3.5 1 L 0.5 3.5 C 1 4 2.5 5 1.5 7 C 0.5 9 0 12 2 14 C 4.5 16.5 7.5 14.5 8.5 16.5 C 9.5 14.5 12.5 16.5 15 14 C 17 12 16.5 9 15.5 7 C 14.5 5 16 4 16.5 3.5 L 13.5 1 C 11.5 2 11 3 8.5 1 C 6 3 5.5 2 3.5 1 z "
       transform="translate(301,901.36218)"
       id="path3799" />
    <rect
       style="color:#000000;fill:#000000;fill-opacity:1;fill-rule:nonzero;stroke:none;stroke-width:1;marker:none;visibility:visible;display:inline;overflow:visible;enable-background:accumulate;opacity:0"
       id="rect3803"
       width="17"
       height="17"
       x="301"
       y="901.36218" />
  </g>
</svg>
